!!!COM: Schubert, Franz
!!!CDT: 1797/01/31-1828/11/19
!!!SCT: D. 365
!!!OPR: 36 Originaltänze
!!!OPS: 9
!!!ONM: 17
**kern	**kern	**dynam
*part1	*part1	*part1
*staff2	*staff1	*
*I"Klavier	*	*
*I'Klav.	*	*
*clefF4	*clefG2	*
*k[f#c#g#]	*k[f#c#g#]	*
*M3/4	*M3/4	*
=1	=1	=1
*A:	*A:	*
4r	(4eeM	p
=	=	=
*^	*	*
4r	2.A	4cc#)	.
4c# 4e	.	8eeL	.
.	.	8aaJ	.
4c# 4e	.	(4a	.
=	=	=	=
4r	2.B	4g#)	.
4d 4e	.	8ddL	.
.	.	8ff#J	.
4d	.	[4e	.
=	=	=	=
4r	2.E	8eL]	.
.	.	8bJ	.
4B 4d 4e	.	8g#L	.
.	.	8ddJ	.
4B 4d 4e	.	4g#	.
=	=	=	=
4r	2.A	8eL	.
.	.	8cc#J	.
4c# 4e	.	8aL	.
.	.	8cc#J	.
4c# 4e	.	(4eeM	.
=	=	=	=
4r	2.A	4cc#)	.
4c# 4e	.	8eeL	.
.	.	8aaJ	.
4c# 4e	.	(4a	.
=	=	=	=
4r	2.B	4g#)	.
4d 4e	.	8ddL	.
.	.	8ff#J	.
4d	.	[4e	.
!!linebreak:original
=	=	=	=
4r	2.E	8eL]	.
.	.	8bJ	.
4B 4d 4e	.	8g#L	.
.	.	8ddJ	.
4B 4d 4e	.	4g#	.
*v	*v	*	*
=	=	=
4A 4c#	2a	.
4AA	.	.
=:|!|:	=:|!|:	=:|!|:
4r	8aL	f
.	8g#J	.
=	=	=
*^	*	*
4r	2.D	8f#L	.
.	.	8aJ	.
4F# 4d	.	8ddL 8ff#	.
.	.	8aJ	.
4F# 4d	.	8ddL 8ff#	.
.	.	8aJ	.
*v	*v	*	*
=	=	=
4AA 4A	4cc# 4aa	.
2A 2c#	2e 2cc# 2ee	fz
=	=	=
4EE 4E	4dd 4ff#	.
2E 2B 2d	2e 2g# 2b	fz
=	=	=
4AA 4A	(4cc# 4ee	>
8A 8c#	8a) 8cc#	]
8r	8r	.
4r	8aML	.
.	8g#J	.
!!linebreak:original
=	=	=
*^	*	*
4r	2.D	8f#L	.
.	.	8aJ	.
4F# 4d	.	8ddL 8ff#	.
.	.	8aJ	.
4F# 4d	.	8ddL 8ff#	.
.	.	8aJ	.
*v	*v	*	*
=	=	=
4AA 4A	4cc# 4aa	.
2A 2c#	2e 2cc# 2ee	fz
=	=	=
4EE 4E	4dd 4ff#	.
(2E 2B	2d 2e 2g#	fz
=	=	=
4A)	4c# 4e 4a	.
4AA	4r	.
=:|!	=:|!	=:|!
*-	*-	*-
!!!system-decoration: {(s1,s2)}
!!!AGN: Walzer
!!!EED: Wolfgang Drescher
!!!END: 2025/12/03
!!!ENC: Florian Moldaschl
!!!EEV: 2025/12/03
!!!title: @{OPR}, @{SCT} №@{ONM}